nalufx-ui/ui/assets/dashboard.svg

<svg fill="none" height="24" viewBox="0 0 24 24" width="24" xmlns="http://www.w3.org/2000/svg"><path d="m13.25 9v-5.5h7.25v5.5zm-9.75 3.5v-9h7.25v9zm9.75 8v-9h7.25v9zm-9.75 0v-5.5h7.25v5.5zm1.5-9.5h4.25v-6h-4.25zm9.75 8h4.25v-6h-4.25zm0-11.5h4.25v-2.5h-4.25zm-9.75 11.5h4.25v-2.5h-4.25z" fill="#defb3a"/></svg>

<svg width="24" height="24" viewBox="0 0 24 24" fill="none" xmlns="http://www.w3.org/2000/svg">
<path d="M13.25 9V3.5H20.5V9H13.25ZM3.5 12.5V3.5H10.75V12.5H3.5ZM13.25 20.5V11.5H20.5V20.5H13.25ZM3.5 20.5V15H10.75V20.5H3.5ZM5 11H9.25V5H5V11ZM14.75 19H19V13H14.75V19ZM14.75 7.5H19V5H14.75V7.5ZM5 19H9.25V16.5H5V19Z" fill="#DEFB3A"/>
</svg>
